X:243
T:The Fandango
M:6/8
L:1/8
S:Colin Hume's website,  colinhume.com  - chords can also be printed below the stave.
Q:3/8=120
K:D
P:A
|: "D"d2d dcd | "G"B2G "A"FGA | "D"d2d d3 | "D"fda "A7"f2d |\
"D"d2d dcd | "G"B2G "A"FGA | "Bm"d2d "Em"d2g | "A7"e2a "D"f2d :|
P:B
|: "D"aba f2d | "D"AFd AFd | "D"aba f2d | "G"BGd BGd |\
"D"aba "D7"f2d | "G"B2G "D"F2A | "Em"B2d "A7"e2c | "D"d6 :|

